X: 52
T:Mountain Road
R:Reel
D:asin=B000000DV5(Andy McGann, Paddy Reynolds: Andy McGann &amp; Paddy
D:Rey
D:lds)
D:asin=B000003PZU(Dubliners: Complete Dubliners [BOX SET] [IMPORT])
D:anop=B0000003EN(Ashley MacIsaac: A Compilation)
D:anop=B000000E59(Laurence Nugent: Traditional Irish Music On Flute &amp;
D:n...)
D:anop=B000002413(Ceilidh House Sessions: From the Tron Tavern Edinburgh
D:[
D:PORT])
D:anop=B000002OOK(Sorcerer: Sorcerer)
D:anop=B000006OTZ(Battering Ram: Irish Rebel Songs)
M:C
L:1/8
Q:300
K:D
DE|"D"F2AF BFAF|F2AF EDB,D|F2AF BFAF|"Em"GEFD EDB,D|\
"D"F2AF BFAF|F2AF EDB,D|"Em"EFGA BAFA|"A"Bcde "D"fdd2:||\
"D"dcdA BAFA|dcde fgfe|dcdA BAFD|"Em"GEFD EDB,D|\
"D"dcdA BAFA|dcde fgfe|defd AFDF|"Em"GEFD EDB,D||

